svg/system/alert_diamond_fill.svg

<?xml version="1.0" encoding="UTF-8"?>
<svg width="24px" height="24px" viewBox="0 0 24 24" version="1.1" xmlns="http://www.w3.org/2000/svg" xmlns:xlink="http://www.w3.org/1999/xlink">
    <title>alert_diamond_fill</title>
    <g id="Icon" stroke="none" stroke-width="1" fill="none" fill-rule="evenodd">
        <g id="System" transform="translate(-48.000000, -528.000000)">
            <g id="alert_diamond_fill" transform="translate(48.000000, 528.000000)">
                <path d="M24,0 L24,24 L0,24 L0,0 L24,0 Z M12.5935,23.2578 L12.5819,23.2595 L12.5109,23.295 L12.4919,23.2987 L12.4767,23.295 L12.4057,23.2595 C12.3958,23.2564 12.387,23.259 12.3821,23.2649 L12.378,23.2758 L12.3609,23.7031 L12.3659,23.7235 L12.3769,23.7357 L12.4805,23.8097 L12.4953,23.8136 L12.5071,23.8097 L12.6107,23.7357 L12.6233,23.7197 L12.6267,23.7031 L12.6096,23.2758 C12.6076,23.2657 12.601,23.2593 12.5935,23.2578 Z M12.8584,23.1453 L12.8445,23.1473 L12.6598,23.2397 L12.6499,23.2499 L12.6472,23.2611 L12.6651,23.6906 L12.6699,23.7034 L12.6784,23.7105 L12.8793,23.8032 C12.8914,23.8069 12.9022,23.803 12.9078,23.7952 L12.9118,23.7812 L12.8777,23.1665 C12.8753,23.1546 12.8674,23.147 12.8584,23.1453 Z M12.143,23.1473 C12.1332,23.1424 12.1222,23.1453 12.1156,23.1526 L12.1099,23.1665 L12.0758,23.7812 C12.0751,23.7927 12.0828,23.8019 12.0926,23.8046 L12.1083,23.8032 L12.3092,23.7105 L12.3186,23.7024 L12.3225,23.6906 L12.3404,23.2611 L12.3372,23.2485 L12.3278,23.2397 L12.143,23.1473 Z" id="MingCute" fill-rule="nonzero"></path>
                <path d="M13.4143,2.80747 L21.1925,10.5856 C21.9735,11.3667 21.9735,12.633 21.1925,13.4141 L13.4143,21.1922 C12.6333,21.9733 11.3669,21.9733 10.5859,21.1922 L2.80771,13.4141 C2.02666,12.633 2.02666,11.3667 2.80771,10.5856 L10.5859,2.80747 C11.3669,2.02642 12.6333,2.02642 13.4143,2.80747 Z M12.0021,14.9998 C11.4478,14.9998 11.0001,15.4475 11.0001,15.9998 C11.0001,16.51265 11.386127,16.9353092 11.8834761,16.9930725 L12.0021,16.9998 C12.5543,16.9998 13.0021,16.5521 13.0021,15.9998 C13.0021,15.4475 12.5543,14.9998 12.0021,14.9998 Z M12.0001,7.99982 C11.1787316,7.99982 10.533454,8.68180859 10.5592093,9.4850839 L10.5698,9.61999 L11.0078,13.1239 C11.0704,13.6243 11.4958,13.9998 12.0001,13.9998 C12.4656077,13.9998 12.863887,13.6798473 12.9716428,13.2370457 L12.9924,13.1239 L13.4304,9.61999 C13.5379,8.75969 12.8671,7.99982 12.0001,7.99982 Z" id="形状" fill="#09244B"></path>
            </g>
        </g>
    </g>
</svg>

<svg xmlns="http://www.w3.org/2000/svg" width="24" height="24"><g fill="none" fill-rule="evenodd"><path d="M24 0v24H0V0h24ZM12.594 23.258l-.012.002-.071.035-.02.004-.014-.004-.071-.036c-.01-.003-.019 0-.024.006l-.004.01-.017.428.005.02.01.013.104.074.015.004.012-.004.104-.074.012-.016.004-.017-.017-.427c-.002-.01-.009-.017-.016-.018Zm.264-.113-.014.002-.184.093-.01.01-.003.011.018.43.005.012.008.008.201.092c.012.004.023 0 .029-.008l.004-.014-.034-.614c-.003-.012-.01-.02-.02-.022Zm-.715.002a.023.023 0 0 0-.027.006l-.006.014-.034.614c0 .012.007.02.017.024l.015-.002.201-.093.01-.008.003-.011.018-.43-.003-.012-.01-.01-.184-.092Z"/><path fill="#09244B" d="m13.414 2.807 7.778 7.779a2 2 0 0 1 0 2.828l-7.778 7.778a2 2 0 0 1-2.828 0l-7.778-7.778a2 2 0 0 1 0-2.828l7.778-7.779a2 2 0 0 1 2.828 0ZM12.002 15a1 1 0 0 0-.119 1.993l.12.007a1 1 0 0 0 0-2ZM12 8c-.821 0-1.467.682-1.44 1.485l.01.135.438 3.504a1 1 0 0 0 1.964.113l.02-.113.438-3.504A1.441 1.441 0 0 0 12 8Z"/></g></svg>
